X:1701
T:The Men From Ulster
M:C|
L:1/8
B:O'Neill's 1701
R:Hornpipe
Z:"Transcribed by Bob Safranek, rjs@gsp.org"
K:G
(D>B,) | G,>B,D>G B>GD>B, | C>EA>B c>BA>c |    B>dg>d e>cA>G |\
(3FGA (3GFE (3DED (3CB,A, |
         G,>B,D>G B>GD>B, | C>EA>B c>de>f | {a}g>fg>e (3ded (3cBA | G>Bd>B g2 :|
|: B>c | d>g{ag}f>f e>g{ag}f>g | b>ga>f g>ed>B | (3cde (3ABc (3Bcd G>B |\
(3AGF (3GFE D2 B>c |
         d>g{ag}f>g e>g{ag}f>g | b>ga>f g>ed>B | c>de>f {a}g>fg>e | d>Bc>A G2 :|


